tools/download-figma-icons/icons/outlined-medium/faq.svg

<svg width="25" height="24" viewBox="0 0 25 24" fill="none" xmlns="http://www.w3.org/2000/svg">
<path d="M24.0274 15.1649C24.0382 14.066 23.7034 12.9914 23.0702 12.0925C22.4371 11.1937 21.5376 10.516 20.4984 10.1549C20.4037 10.1254 20.3041 10.1148 20.2054 10.1236C20.1066 10.1325 20.0105 10.1608 19.9227 10.2067C19.8348 10.2527 19.7569 10.3155 19.6933 10.3915C19.6298 10.4676 19.5819 10.5554 19.5523 10.6499C19.5227 10.7445 19.512 10.8439 19.5209 10.9426C19.5298 11.0413 19.5581 11.1372 19.6041 11.225C19.6501 11.3127 19.713 11.3906 19.7891 11.454C19.8653 11.5175 19.9532 11.5654 20.0478 11.5949C20.7851 11.8527 21.4219 12.3369 21.867 12.9782C22.312 13.6194 22.5426 14.3848 22.5257 15.1649C22.5276 15.9685 22.2615 16.7499 21.7692 17.3855C21.277 18.0212 20.5868 18.4749 19.8076 18.6749C19.6595 18.7082 19.525 18.7855 19.4218 18.8966C19.3186 19.0077 19.2515 19.1475 19.2294 19.2974C19.1705 19.7631 19.1705 20.2343 19.2294 20.6999C18.944 20.5591 18.6899 20.3624 18.4822 20.1214C18.2746 19.8805 18.1175 19.6003 18.0205 19.2974C17.9712 19.2129 17.9186 19.1304 17.8628 19.0499C17.8331 19.0163 17.7975 18.9883 17.7577 18.9674C17.7188 18.9348 17.6759 18.9071 17.6301 18.8849C17.5902 18.8807 17.5499 18.8807 17.5099 18.8849C17.4576 18.8778 17.4046 18.8778 17.3523 18.8849H16.3837C15.7603 18.9042 15.1455 18.7357 14.6192 18.4013C14.093 18.0669 13.6796 17.5821 13.4328 17.0099C13.335 16.8477 13.1795 16.7284 12.9973 16.6759C12.8151 16.6235 12.6198 16.6419 12.4506 16.7273C12.2814 16.8128 12.1509 16.959 12.0851 17.1366C12.0194 17.3142 12.0234 17.5101 12.0963 17.6849C12.4639 18.5077 13.0673 19.2033 13.8304 19.6838C14.5934 20.1644 15.4819 20.4083 16.3837 20.3849H16.7666C17.1111 21.0162 17.6173 21.5446 18.2334 21.9162C18.8495 22.2879 19.5534 22.4893 20.2731 22.4999C20.4027 22.5007 20.5303 22.4679 20.6434 22.4049C20.7566 22.3418 20.8515 22.2505 20.9188 22.1399C20.9847 22.0259 21.0194 21.8966 21.0194 21.7649C21.0194 21.6333 20.9847 21.504 20.9188 21.3899C20.7181 20.94 20.6255 20.4495 20.6485 19.9574C21.635 19.5999 22.4878 18.9486 23.092 18.0916C23.6963 17.2346 24.0227 16.2131 24.0274 15.1649Z" fill="black"/>
<path d="M12.7645 6H5.25592C5.05678 6 4.8658 6.07902 4.72499 6.21967C4.58417 6.36032 4.50507 6.55109 4.50507 6.75C4.50507 6.94891 4.58417 7.13968 4.72499 7.28033C4.8658 7.42098 5.05678 7.5 5.25592 7.5H12.7645C12.9636 7.5 13.1546 7.42098 13.2954 7.28033C13.4362 7.13968 13.5153 6.94891 13.5153 6.75C13.5153 6.55109 13.4362 6.36032 13.2954 6.21967C13.1546 6.07902 12.9636 6 12.7645 6Z" fill="black"/>
<path d="M9.76106 9H5.25592C5.05678 9 4.8658 9.07902 4.72499 9.21967C4.58417 9.36032 4.50507 9.55109 4.50507 9.75C4.50507 9.94891 4.58417 10.1397 4.72499 10.2803C4.8658 10.421 5.05678 10.5 5.25592 10.5H9.76106C9.9602 10.5 10.1512 10.421 10.292 10.2803C10.4328 10.1397 10.5119 9.94891 10.5119 9.75C10.5119 9.55109 10.4328 9.36032 10.292 9.21967C10.1512 9.07902 9.9602 9 9.76106 9Z" fill="black"/>
<path d="M18.7714 8.25C18.7714 6.45979 18.0594 4.7429 16.7921 3.47703C15.5248 2.21116 13.806 1.5 12.0137 1.5H6.7577C5.03535 1.50704 3.38068 2.17073 2.13178 3.35546C0.882874 4.54018 0.133989 6.15654 0.0381312 7.87427C-0.0577271 9.59201 0.506676 11.2815 1.61603 12.5975C2.72538 13.9135 4.29594 14.7568 6.00684 14.955C5.95348 15.8869 5.74013 16.8028 5.37612 17.6625C5.32019 17.7824 5.29698 17.9149 5.30885 18.0466C5.32071 18.1783 5.36724 18.3045 5.4437 18.4125C5.50584 18.5077 5.58882 18.5875 5.68637 18.646C5.78393 18.7045 5.89351 18.74 6.00684 18.75H6.12698C6.3222 18.75 10.5946 18 11.8035 15H12.0137C12.9011 15 13.7799 14.8254 14.5998 14.4862C15.4196 14.147 16.1646 13.6498 16.7921 13.023C17.4196 12.3962 17.9174 11.6521 18.257 10.8331C18.5966 10.0142 18.7714 9.13642 18.7714 8.25ZM12.0137 13.5H11.2628C11.0913 13.495 10.9233 13.5488 10.7866 13.6526C10.65 13.7563 10.5531 13.9036 10.512 14.07C10.1215 15.6375 8.39457 16.4925 7.15565 16.9125C7.36803 16.0401 7.48634 15.1475 7.50856 14.25C7.50856 14.0511 7.42945 13.8603 7.28863 13.7197C7.14782 13.579 6.95684 13.5 6.7577 13.5C5.36372 13.5 4.02684 12.9469 3.04115 11.9623C2.05546 10.9777 1.5017 9.64239 1.5017 8.25C1.5017 6.85761 2.05546 5.52226 3.04115 4.53769C4.02684 3.55312 5.36372 3 6.7577 3H12.0137C13.4077 3 14.7446 3.55312 15.7302 4.53769C16.7159 5.52226 17.2697 6.85761 17.2697 8.25C17.2697 9.64239 16.7159 10.9777 15.7302 11.9623C14.7446 12.9469 13.4077 13.5 12.0137 13.5Z" fill="black"/>
</svg>

<svg width="25" height="24" viewBox="0 0 25 24" fill="none" xmlns="http://www.w3.org/2000/svg"><path d="M24.027 15.165a5.245 5.245 0 0 0-3.529-5.01.759.759 0 0 0-.805.237.756.756 0 0 0 .355 1.203 3.701 3.701 0 0 1 2.478 3.57 3.612 3.612 0 0 1-2.718 3.51.752.752 0 0 0-.579.622 5.588 5.588 0 0 0 0 1.403 2.371 2.371 0 0 1-1.209-1.403 3.763 3.763 0 0 0-.157-.247.37.37 0 0 0-.105-.083.619.619 0 0 0-.128-.082.575.575 0 0 0-.12 0 .586.586 0 0 0-.158 0h-.968a3.11 3.11 0 0 1-2.951-1.875.751.751 0 0 0-1.337.675 4.56 4.56 0 0 0 4.288 2.7h.383a4.059 4.059 0 0 0 3.506 2.115.752.752 0 0 0 .646-.36.75.75 0 0 0 0-.75 3.15 3.15 0 0 1-.27-1.433 5.127 5.127 0 0 0 3.378-4.792ZM12.764 6H5.256a.751.751 0 0 0-.531 1.28c.14.141.332.22.53.22h7.51a.751.751 0 0 0 .53-1.28.751.751 0 0 0-.53-.22ZM9.761 9H5.256a.751.751 0 0 0-.531 1.28c.14.141.332.22.53.22h4.506a.751.751 0 1 0 0-1.5Z" fill="currentColor"/><path d="M18.771 8.25c0-1.79-.712-3.507-1.979-4.773A6.761 6.761 0 0 0 12.014 1.5H6.758a6.762 6.762 0 0 0-4.626 1.855 6.747 6.747 0 0 0 3.875 11.6 8.137 8.137 0 0 1-.63 2.708.75.75 0 0 0 .067.75.75.75 0 0 0 .563.337h.12c.195 0 4.468-.75 5.676-3.75h.21a6.765 6.765 0 0 0 4.78-1.977A6.75 6.75 0 0 0 18.77 8.25Zm-6.757 5.25h-.751a.751.751 0 0 0-.751.57c-.39 1.567-2.117 2.422-3.356 2.843.212-.873.33-1.765.353-2.663a.75.75 0 0 0-.751-.75 5.259 5.259 0 0 1-3.717-1.538A5.247 5.247 0 0 1 6.758 3h5.256c1.394 0 2.73.553 3.716 1.538a5.247 5.247 0 0 1-3.716 8.962Z" fill="currentColor"/></svg>
